Numix-GalliumOS/16/mimetypes/text-x-python.svg

<?xml version="1.0" encoding="UTF-8" standalone="no"?>
<svg
   xmlns:dc="http://purl.org/dc/elements/1.1/"
   xmlns:cc="http://creativecommons.org/ns#"
   xmlns:rdf="http://www.w3.org/1999/02/22-rdf-syntax-ns#"
   xmlns:svg="http://www.w3.org/2000/svg"
   xmlns="http://www.w3.org/2000/svg"
   xmlns:sodipodi="http://sodipodi.sourceforge.net/DTD/sodipodi-0.dtd"
   xmlns:inkscape="http://www.inkscape.org/namespaces/inkscape"
   width="16"
   height="16"
   viewBox="0 0 16 16"
   id="svg2"
   version="1.1"
   inkscape:version="0.48.5 r10040"
   sodipodi:docname="text-x-python.svg">
  <metadata
     id="metadata20">
    <rdf:RDF>
      <cc:Work
         rdf:about="">
        <dc:format>image/svg+xml</dc:format>
        <dc:type
           rdf:resource="http://purl.org/dc/dcmitype/StillImage" />
      </cc:Work>
    </rdf:RDF>
  </metadata>
  <defs
     id="defs18" />
  <sodipodi:namedview
     pagecolor="#ffffff"
     bordercolor="#666666"
     borderopacity="1"
     objecttolerance="10"
     gridtolerance="10"
     guidetolerance="10"
     inkscape:pageopacity="0"
     inkscape:pageshadow="2"
     inkscape:window-width="1280"
     inkscape:window-height="970"
     id="namedview16"
     showgrid="true"
     inkscape:zoom="10.429825"
     inkscape:cx="-5.3033722"
     inkscape:cy="22.232788"
     inkscape:window-x="0"
     inkscape:window-y="0"
     inkscape:window-maximized="1"
     inkscape:current-layer="svg2">
    <inkscape:grid
       type="xygrid"
       id="grid2997" />
  </sodipodi:namedview>
  <path
     style="fill:#366994;fill-opacity:1"
     d="M 2.667969,-4.46e-4 C 2.324219,-4.46e-4 2,0.337812 2,0.6964467 L 2,15.303108 C 2,15.641365 2.34375,16 2.667969,16 l 10.664062,0 C 13.65625,16 14,15.641365 14,15.303108 L 14,3.9995538 10,-4.46e-4 z"
     id="path4-6"
     inkscape:connector-curvature="0"
     sodipodi:nodetypes="ssssssccs" />
  <path
     style="fill:#000000;fill-opacity:0.19599998"
     d="m 10.583223,3.3315848 0.0154,0.01953 0.04005,-0.01953 z m 0.02978,0.667969 3.387,3.664062 0,-3.664062 z"
     id="path6"
     inkscape:connector-curvature="0"
     sodipodi:nodetypes="cccccccc" />
  <path
     style="fill:#ffffff;fill-opacity:0.39200003"
     d="m 10,-4.46e-4 3.996396,3.9999998 -3.383784,0 C 10.313513,3.9995538 10,3.6824368 10,3.3833378 z"
     id="path8"
     inkscape:connector-curvature="0"
     sodipodi:nodetypes="ccssc" />
  <g
     style="fill:#ffffff"
     id="g10"
     transform="matrix(1.2358622,0,0,1.2358622,-1.8868974,-2.0048285)">
    <path
       d="M 8.070312,5 C 7.800781,5 7.539062,5.023438 7.3125,5.0625 6.640625,5.179688 6.496094,5.214844 6.496094,5.667969 l 0,1 1.667968,0 0,0.332031 -2.332031,0 C 5.371094,7 5.070312,7.28125 4.945312,7.800781 c -0.144531,0.597657 -0.152343,0.972657 0,1.59375 0.113282,0.464844 0.425782,0.9375 0.886719,0.9375 l 0.332031,0 0,-1 c 0,-0.515625 0.464844,-1 1,-1 l 1.667969,0 C 9.273438,8.332031 9.5,8.105469 9.5,7.667969 L 9.5,6 C 9.5,5.574219 9.324219,5.132812 8.894531,5.0625 8.625,5.019531 8.34375,5 8.070312,5 z M 7.5,5.667969 C 7.683594,5.667969 7.832031,5.816406 7.832031,6 7.832031,6.183594 7.683594,6.332031 7.5,6.332031 7.3125,6.332031 7.164062,6.183594 7.164062,6 7.164062,5.816406 7.3125,5.667969 7.5,5.667969 z"
       id="path12"
       inkscape:connector-curvature="0" />
    <path
       d="m 7.929688,12 c 0.269531,0 0.53125,-0.02344 0.757812,-0.0625 0.671875,-0.117188 0.816406,-0.152344 0.816406,-0.605469 l 0,-1 -1.667968,0 0,-0.332031 2.332031,0 c 0.460937,0 0.761719,-0.28125 0.886719,-0.800781 0.144531,-0.597657 0.152343,-0.972657 0,-1.59375 -0.113282,-0.464844 -0.425782,-0.9375 -0.886719,-0.9375 l -0.332031,0 0,1 c 0,0.515625 -0.464844,1 -1,1 l -1.667969,0 C 6.726562,8.667969 6.5,8.894531 6.5,9.332031 L 6.5,11 c 0,0.425781 0.175781,0.867188 0.605469,0.9375 C 7.375,11.980469 7.65625,12 7.929688,12 z M 8.5,11.332031 c -0.183594,0 -0.332031,-0.148437 -0.332031,-0.332031 0,-0.183594 0.148437,-0.332031 0.332031,-0.332031 0.1875,0 0.335938,0.148437 0.335938,0.332031 0,0.183594 -0.148438,0.332031 -0.335938,0.332031 z"
       id="path14"
       inkscape:connector-curvature="0" />
  </g>
</svg>

<svg xmlns="http://www.w3.org/2000/svg" viewBox="0 0 16 16">
 <path d="m 2.668 0 c -0.344 0 -0.668 0.338 -0.668 0.697 l 0 14.607 c 0 0.338 0.344 0.697 0.668 0.697 l 10.664 0 c 0.324 0 0.668 -0.359 0.668 -0.697 l 0 -11.304 -4 -4 z" style="fill:#366994;fill-opacity:1"/>
 <path d="m 10.583 3.332 0.015 0.02 0.04 -0.02 z m 0.03 0.668 3.387 3.664 0 -3.664 z" style="fill:#000;fill-opacity:0.196"/>
 <path d="m 10 0 3.996 4 -3.384 0 c -0.299 0 -0.613 -0.317 -0.613 -0.616 z" style="fill:#fff;fill-opacity:0.392"/>
 <g transform="matrix(1.2358622,0,0,1.2358622,-1.8868974,-2.0048285)" style="fill:#fff">
  <path d="m 8.07 5 c -0.27 0 -0.531 0.023 -0.758 0.063 -0.672 0.117 -0.816 0.152 -0.816 0.605 l 0 1 1.668 0 0 0.332 -2.332 0 c -0.461 0 -0.762 0.281 -0.887 0.801 c -0.145 0.598 -0.152 0.973 0 1.594 0.113 0.465 0.426 0.938 0.887 0.938 l 0.332 0 0 -1 c 0 -0.516 0.465 -1 1 -1 l 1.668 0 c 0.441 0 0.668 -0.227 0.668 -0.664 l 0 -1.668 c 0 -0.426 -0.176 -0.867 -0.605 -0.938 -0.27 -0.043 -0.551 -0.063 -0.824 -0.063 z m -0.57 0.668 c 0.184 0 0.332 0.148 0.332 0.332 0 0.184 -0.148 0.332 -0.332 0.332 -0.188 0 -0.336 -0.148 -0.336 -0.332 0 -0.184 0.148 -0.332 0.336 -0.332 z"/>
  <path d="m 7.93 12 c 0.27 0 0.531 -0.023 0.758 -0.063 0.672 -0.117 0.816 -0.152 0.816 -0.605 l 0 -1 -1.668 0 0 -0.332 2.332 0 c 0.461 0 0.762 -0.281 0.887 -0.801 0.145 -0.598 0.152 -0.973 0 -1.594 -0.113 -0.465 -0.426 -0.938 -0.887 -0.938 l -0.332 0 0 1 c 0 0.516 -0.465 1 -1 1 l -1.668 0 c -0.441 0 -0.668 0.227 -0.668 0.664 l 0 1.668 c 0 0.426 0.176 0.867 0.605 0.938 c 0.27 0.043 0.551 0.063 0.824 0.063 z m 0.57 -0.668 c -0.184 0 -0.332 -0.148 -0.332 -0.332 0 -0.184 0.148 -0.332 0.332 -0.332 0.188 0 0.336 0.148 0.336 0.332 0 0.184 -0.148 0.332 -0.336 0.332 z"/>
 </g>
</svg>
